hosted_logos/dhiway_networks_private_limited.svg

<svg xmlns="http://www.w3.org/2000/svg" role="img" xmlns:xlink="http://www.w3.org/1999/xlink" viewBox="158.73 166.23 664.04 451.04"><defs><linearGradient id="a" x1="0" x2="1" gradientUnits="userSpaceOnUse"><stop offset="0" stop-color="#bf6517"/><stop offset=".418" stop-color="#bc6317"/><stop offset="1" stop-color="#994b1f"/></linearGradient><linearGradient id="c" gradientTransform="rotate(30 -194.044 865.189) scale(206.50103)" xlink:href="#a"/><linearGradient id="b" x1="0" x2="1" gradientUnits="userSpaceOnUse"><stop offset="0" stop-color="#fa0"/><stop offset=".418" stop-color="#fca700"/><stop offset="1" stop-color="#d98a00"/></linearGradient><linearGradient id="d" gradientTransform="rotate(30 -215.208 1000.675) scale(135.3134)" xlink:href="#b"/></defs><g fill="none" fill-opacity="1" stroke="none" stroke-dasharray="none" stroke-opacity="1"><path fill="#40172f" d="M249.593 564.236v-14.925h-.425c-6.398 11.087-18.554 17.485-32.2 17.485-27.506 0-45.203-22.176-45.203-56.721s17.485-56.93 44.99-56.93c13.434 0 25.586 6.183 31.772 16.844h.428v-57.571h24.305v151.819h-23.667zm-52.454-54.161c0 23.03 10.449 37.955 26.868 37.955 15.778 0 26.227-14.497 26.227-37.955 0-23.667-10.449-37.955-26.227-37.955-16.419 0-26.868 14.928-26.868 37.955z"/><path fill="#40172f" d="M314.681 468.71c7.673-10.449 18.976-15.353 31.131-15.353 24.518 0 39.446 14.928 39.446 44.565v66.314H360.95v-64.182c0-19.404-8.317-27.081-21.964-27.081-13.859 0-24.733 10.449-24.733 31.131v60.131h-24.308V412.416h24.308v56.293h.428z"/><path fill="#40172f" d="M401.302 455.917h24.308v108.319h-24.308z"/><path fill="#40172f" d="M520.448 564.236l.213-44.778c0-15.353.213-30.919.641-46.697h-.428c-6.82 15.778-14.072 31.344-21.748 46.697l-22.173 44.778h-34.757l.425-108.319h23.242l-1.066 43.496c-.428 15.781-.853 32.2-1.491 47.979h.425c6.823-15.778 14.072-31.344 21.748-47.125l21.961-44.35h34.119l-.213 44.35c.213 15.781 0 31.347-.644 47.125h.428c6.398-15.778 13.647-32.197 21.323-47.979l20.682-43.496h25.374l-53.305 108.319h-34.757z"/><path fill="#40172f" d="M697.047 495.15v40.515c0 12.793 1.066 21.748 2.769 28.571h-21.961c-1.066-4.692-1.494-10.021-1.494-15.141h-.425c-7.889 11.515-20.042 17.485-36.464 17.485-22.598 0-36.673-13.647-36.673-32.197 0-17.697 10.449-29.212 41.58-34.116 8.739-1.491 21.536-2.769 29.212-3.198v-4.263c0-15.994-8.746-22.389-21.111-22.389-13.434 0-20.682 7.461-21.323 18.976h-23.88c1.066-20.47 15.991-36.673 45.203-36.673 28.575 0 44.565 14.072 44.565 42.431zm-23.455 17.697c-7.251.428-17.697 1.494-24.949 2.772-15.566 2.56-21.323 7.251-21.323 17.06 0 9.593 6.823 15.991 19.191 15.991 7.464 0 14.712-2.344 19.617-7.248 5.757-5.973 7.464-11.727 7.464-23.242v-5.332z"/><path fill="#40172f" d="M768.443 568.927c-10.233 27.506-22.173 35.823-47.335 35.823-4.692 0-8.958-.641-12.156-1.494v-19.829c2.772.853 6.398 1.491 10.236 1.491 13.218 0 18.976-4.904 24.092-19.829l-39.658-109.172h26.012l27.081 80.601h.425l27.934-80.601h25.161l-41.793 113.011z"/><circle cx="413.355" cy="427.452" r="14.933" fill="#40172f"/><circle cx="311.344" cy="265.04" r="85.504" fill="#bf6517"/><circle cx="670.656" cy="265.04" r="85.504" fill="#fa0"/><path fill="url(#c)" d="M494.22 348.665c11.729-8.466 43.235-70.725 43.287-70.827 28.868-61.011 28.288-72.405 28.478-75.495l-.042-.684c-.257-1.978-2.373-7.892-17.247-15.051-.079-.04-.178-.079-.257-.119-15.645-6.843-43.553-13.509-76.504 3.461-49.031 25.257-59.791 89.598-27.334 131.034 0 0 11.491 17.366 35.424 26.978.02 0 .02.019.04.019 8.742 3.224 12.797 1.483 13.845.89.178-.119.31-.207.31-.207z"/><path fill="url(#d)" d="M537.507 277.838c-.052.102-31.558 62.362-43.287 70.827 0 0 6.805-18.245 4.829-39.201s-5.481-37.732 3.447-54.524c0 0 4.183-10.199 14.334-18.005 0 0 3.987-3.131 9.582-6.005 5.595-2.874 16.068-7.968 19.829-10.451 3.761-2.483 7.666-5.086 10.839-8.169s7.067-7.334 8.906-9.968c-.191 3.091.39 14.484-28.478 75.495z"/></g></svg>

<?xml version="1.0" encoding="UTF-8" standalone="no"?>
<svg
   version="1.1"
   viewBox="169.765 177.25004 642.47 429.49996"
   width="642.47"
   height="429.49996"
   id="svg14"
   xmlns:xlink="http://www.w3.org/1999/xlink"
   xmlns="http://www.w3.org/2000/svg"
   xmlns:svg="http://www.w3.org/2000/svg">
  <defs
     id="defs6">
    <linearGradient
       x1="0"
       x2="1"
       id="Gradient"
       gradientUnits="userSpaceOnUse">
      <stop
         offset="0"
         stop-color="#bf6517"
         id="stop1" />
      <stop
         offset=".418"
         stop-color="#bc6317"
         id="stop2" />
      <stop
         offset="1"
         stop-color="#994b1f"
         id="stop3" />
    </linearGradient>
    <linearGradient
       id="Obj_Gradient"
       xlink:href="#Gradient"
       gradientTransform="translate(406.5992 212.93665) rotate(30.000145) scale(206.50103)" />
    <linearGradient
       x1="0"
       x2="1"
       id="Gradient_2"
       gradientUnits="userSpaceOnUse">
      <stop
         offset="0"
         stop-color="#fa0"
         id="stop4" />
      <stop
         offset=".418"
         stop-color="#fca700"
         id="stop5" />
      <stop
         offset="1"
         stop-color="#d98a00"
         id="stop6" />
    </linearGradient>
    <linearGradient
       id="Obj_Gradient_2"
       xlink:href="#Gradient_2"
       gradientTransform="translate(471.51085 241.67468) rotate(30.000457) scale(135.3134)" />
  </defs>
  <g
     id="Canvas_1"
     fill-opacity="1"
     stroke="none"
     fill="none"
     stroke-opacity="1"
     stroke-dasharray="none">
    <title
       id="title6">Canvas 1</title>
    <g
       id="Canvas_1_Layer_1">
      <title
         id="title7">Layer 1</title>
      <g
         id="Graphic_2">
        <path
           d="M 249.593 564.236 L 249.593 549.311 L 249.168 549.311 C 242.77 560.398 230.614 566.796 216.968 566.796 C 189.462 566.796 171.765 544.62 171.765 510.075 C 171.765 475.53 189.25 453.145 216.755 453.145 C 230.189 453.145 242.341 459.328 248.527 469.989 L 248.955 469.989 L 248.955 412.418 L 273.26 412.418 L 273.26 564.237 L 249.593 564.237 Z M 197.139 510.075 C 197.139 533.105 207.588 548.03 224.007 548.03 C 239.785 548.03 250.234 533.533 250.234 510.075 C 250.234 486.408 239.785 472.12 224.007 472.12 C 207.588 472.12 197.139 487.048 197.139 510.075 Z"
           fill="#40172f"
           id="path7" />
      </g>
      <g
         id="Graphic_3">
        <path
           d="M 314.681 468.71 C 322.354 458.261 333.657 453.357 345.812 453.357 C 370.33 453.357 385.258 468.285 385.258 497.922 L 385.258 564.236 L 360.95 564.236 L 360.95 500.054 C 360.95 480.65 352.633 472.973 338.986 472.973 C 325.127 472.973 314.253 483.422 314.253 504.104 L 314.253 564.235 L 289.945 564.235 L 289.945 412.416 L 314.253 412.416 L 314.253 468.709 L 314.681 468.709 Z"
           fill="#40172f"
           id="path8" />
      </g>
      <g
         id="Graphic_4">
        <rect
           x="401.302"
           y="455.917"
           width="24.308"
           height="108.319"
           fill="#40172f"
           id="rect8" />
      </g>
      <g
         id="Graphic_5">
        <path
           d="M 520.448 564.236 L 520.661 519.458 C 520.661 504.105 520.874 488.539 521.302 472.761 L 520.874 472.761 C 514.054 488.539 506.802 504.105 499.126 519.458 L 476.953 564.236 L 442.196 564.236 L 442.621 455.917 L 465.863 455.917 L 464.797 499.413 C 464.369 515.194 463.944 531.613 463.306 547.392 L 463.731 547.392 C 470.554 531.614 477.803 516.048 485.479 500.267 L 507.44 455.917 L 541.559 455.917 L 541.346 500.267 C 541.559 516.048 541.346 531.614 540.702 547.392 L 541.13 547.392 C 547.528 531.614 554.777 515.195 562.453 499.413 L 583.135 455.917 L 608.509 455.917 L 555.204 564.236 L 520.447 564.236 Z"
           fill="#40172f"
           id="path9" />
      </g>
      <g
         id="Graphic_6">
        <path
           d="M 697.047 495.15 L 697.047 535.665 C 697.047 548.458 698.113 557.413 699.816 564.236 L 677.855 564.236 C 676.789 559.544 676.361 554.215 676.361 549.095 L 675.936 549.095 C 668.047 560.61 655.894 566.58 639.472 566.58 C 616.874 566.58 602.799 552.933 602.799 534.383 C 602.799 516.686 613.248 505.171 644.379 500.267 C 653.118 498.776 665.915 497.498 673.591 497.069 L 673.591 492.806 C 673.591 476.812 664.845 470.417 652.48 470.417 C 639.046 470.417 631.798 477.878 631.157 489.393 L 607.277 489.393 C 608.343 468.923 623.268 452.72 652.48 452.72 C 681.055 452.72 697.045 466.792 697.045 495.151 Z M 673.592 512.847 C 666.341 513.275 655.895 514.341 648.643 515.619 C 633.077 518.179 627.32 522.87 627.32 532.679 C 627.32 542.272 634.143 548.67 646.511 548.67 C 653.975 548.67 661.223 546.326 666.128 541.422 C 671.885 535.449 673.592 529.695 673.592 518.18 L 673.592 512.848 Z"
           fill="#40172f"
           id="path10" />
      </g>
      <g
         id="Graphic_7">
        <path
           d="M 768.443 568.927 C 758.21 596.433 746.27 604.75 721.108 604.75 C 716.416 604.75 712.15 604.109 708.952 603.256 L 708.952 583.427 C 711.724 584.28 715.35 584.918 719.188 584.918 C 732.406 584.918 738.164 580.014 743.28 565.089 L 703.622 455.917 L 729.634 455.917 L 756.715 536.518 L 757.14 536.518 L 785.074 455.917 L 810.235 455.917 L 768.442 568.928 Z"
           fill="#40172f"
           id="path11" />
      </g>
      <g
         id="Graphic_8">
        <circle
           cx="413.355"
           cy="427.452"
           r="14.933023861469"
           fill="#40172f"
           id="circle11" />
      </g>
      <g
         id="Graphic_9">
        <circle
           cx="311.344"
           cy="265.04"
           r="85.5041366270037"
           fill="#bf6517"
           id="circle12" />
      </g>
      <g
         id="Graphic_10">
        <circle
           cx="670.656"
           cy="265.04"
           r="85.5041366270037"
           fill="#fa0"
           id="circle13" />
      </g>
      <g
         id="Graphic_11">
        <path
           d="M 494.22 348.665 C 505.949 340.199 537.455 277.94 537.507 277.838 C 566.375 216.827 565.795 205.433 565.985 202.343 L 565.943 201.659 C 565.686 199.681 563.57 193.767 548.696 186.608 C 548.617 186.568 548.518 186.529 548.439 186.489 C 532.794 179.646 504.886 172.98 471.935 189.95 C 422.904 215.207 412.144 279.548 444.601 320.984 C 444.601 320.984 456.092 338.35 480.025 347.962 C 480.045 347.962 480.045 347.981 480.065 347.981 C 488.807 351.205 492.862 349.464 493.91 348.871 C 494.088 348.752 494.22 348.664 494.22 348.664 Z"
           fill="url(#Obj_Gradient)"
           id="path13" />
      </g>
      <g
         id="Graphic_12">
        <path
           d="M 537.507 277.838 C 537.455 277.94 505.949 340.2 494.22 348.665 C 494.22 348.665 501.025 330.42 499.049 309.464 C 497.073 288.508 493.568 271.732 502.496 254.94 C 502.496 254.94 506.679 244.741 516.83 236.935 C 516.83 236.935 520.817 233.804 526.412 230.93 C 532.007 228.056 542.48 222.962 546.241 220.479 C 550.002 217.996 553.907 215.393 557.08 212.31 C 560.253 209.227 564.147 204.976 565.986 202.342 C 565.795 205.433 566.376 216.826 537.508 277.837 Z"
           fill="url(#Obj_Gradient_2)"
           id="path14" />
      </g>
    </g>
  </g>
</svg>
